X:1
T:Title
%%score ( 1 2 ) 3
L:1/8
Q:1/4=84
M:6/8
K:Ab
V:1 treble nm="Grand Piano, Soprano"
V:2 treble 
V:3 bass nm="Choir Pad, Take Courage, C. T. Haines"
V:1
 [CE][Cc][Cc] [Cc][Cc][DB] | [Ec][Ec][EB] [EB] [EB]2 | c/d/[Ee][Ec] [EA][FB][EA] | %3
w: By~John~Robson~Sweney * * * * *|||
 [DG] [CA]2- [CA]2- [CA]/ z/ | [CE][Cc][Cc] [Cc][Cc][DB] | [Ec][Ec][EB] [EB] [EB]2 | %6
w: |||
 c/d/[Ee][Ec] [EA][FB][EA] | [DG] [CA]2- [CA]2- [CA]/ z/ | [Ae][Ae][GB] [Ac] [Bd]2 | %9
w: |||
 [Ge][Ae][CA] [DB] [Ec]2 | E[DF][FA] [FA]E[EA] | [Ec][Ec][EB] [EB] [EB]2 | %12
w: |||
 c/d/[Ee][Ee] [Ec][Ed][Ed] | [Ed]/[Ec]/[CA][CA] [EG] [DF]2 | [DF][CE][EA] [EB][Ec][Ee] | %15
w: |||
 [EA][FB][EA] [DG] [CA]2- | [CA]6 |] %17
w: ||
V:2
 x6 | x6 | .E3 z3 | x6 | x6 | x6 | .E3 z3 | x6 | x6 | x6 | x6 | x6 | .E3 z3 | x6 | x6 | x6 | x6 |] %17
V:3
 [A,,A,][A,,E,][A,,E,] [A,,E,][A,,E,][A,,A,] | [A,,A,][E,A,][E,G,] [E,G,] [E,G,]2 | %2
 A,/B,/[A,C][A,C] [A,C][D,D][E,C] | [E,B,] [A,,A,]2- [A,,A,]2- [A,,A,]/ z/ | %4
 [A,,A,][A,,E,][A,,E,] [A,,E,][A,,E,][A,,A,] | [A,,A,][E,A,][E,G,] [E,G,] [E,G,]2 | %6
 A,/B,/[A,C][A,C] [A,C][D,D][E,C] | [E,B,] [A,,A,]2- [A,,A,]2- [A,,A,]/ z/ | %8
 [A,C][E,B,][E,E] [E,E] [E,E]2 | [E,D][A,C]A, A, A,2 | [C,A,][D,A,][D,D] [D,D][C,A,][C,A,] | %11
 [A,,A,][E,A,][E,G,] [E,G,] [E,G,]2 | A,/B,/[A,C][A,C] A,[G,B,][G,B,] | %13
 A,[F,A,][F,A,] [C,A,] [D,A,]2 | [D,A,][A,,A,][C,A,] [E,G,]A,[A,C] | %15
 [A,C][D,D][E,C] [E,B,] [A,,A,]2- | [A,,A,]6 |] %17

